client/src/assets/public/images/icons/facebook_white.svg

<svg xmlns="http://www.w3.org/2000/svg" xmlns:xlink="http://www.w3.org/1999/xlink" width="1024" height="1024"><defs><path id="A" d="M.06.04H1024v1017.74H.06z"/></defs><g fill-rule="evenodd"><mask id="B" fill="#fff"><use xlink:href="#A"/></mask><path d="M1024 512C1024 229.23 794.77 0 512 0S0 229.23 0 512c0 255.554 187.23 467.37 432 505.78V660H302V512h130V399.2C432 270.88 508.438 200 625.4 200c56.017 0 114.6 10 114.6 10v126h-64.562C611.835 336 592 375.467 592 415.957V512h142l-22.7 148H592v357.78c244.77-38.4 432-250.226 432-505.78" fill="#fffffe" mask="url(#B)"/></g></svg>

<?xml version="1.0" encoding="UTF-8"?>
<svg width="1024px" height="1024px" viewBox="0 0 1024 1024" version="1.1" xmlns="http://www.w3.org/2000/svg" xmlns:xlink="http://www.w3.org/1999/xlink">
    <!-- Generator: Sketch 52.6 (67491) - http://www.bohemiancoding.com/sketch -->
    <title>f_logo_RGB-White_1024</title>
    <desc>Created with Sketch.</desc>
    <defs>
        <polygon id="path-1" points="0.06 0.04 1024 0.04 1024 1017.78 0.06 1017.78"></polygon>
    </defs>
    <g id="f_logo_RGB-White_1024" stroke="none" stroke-width="1" fill="none" fill-rule="evenodd">
        <mask id="mask-2" fill="white">
            <use xlink:href="#path-1"></use>
        </mask>
        <g id="Clip-2"></g>
        <path d="M1024,512 C1024,229.23 794.77,0 512,0 C229.23,0 0,229.23 0,512 C0,767.554 187.231,979.37 432,1017.78 L432,660 L302,660 L302,512 L432,512 L432,399.2 C432,270.88 508.438,200 625.39,200 C681.407,200 740,210 740,210 L740,336 L675.438,336 C611.835,336 592,375.467 592,415.957 L592,512 L734,512 L711.3,660 L592,660 L592,1017.78 C836.769,979.37 1024,767.554 1024,512" id="Fill-1" fill="#FFFFFE" mask="url(#mask-2)"></path>
    </g>
</svg>
